X: 35587
T: S'iomadh Rud A Chunnaic Mi
R: reel
M: 4/4
K: Gmajor
ABBA GEDE|G2AG EGDG|ABBA GEDE|GEDE G2GA|
ABBA GEDE|G2AG EGDG|ABBA GEDE|GEDE G2GD|
G2AB dBAB|dBAB AGED|G2AB dBAB|AGED G2GD|
G2AB dBAB|dBAB AGED|G2AB dBAB|AGED G2GA|

